X:506
T:Colonel's Health,The. (p)1703.PLFD.506
M:4/4
L:1/8
Q:1/2=80
S:Playford, Dancing Master,12th Ed.,1703.
O:England
Z:Chris Partington.
K:F
F4A3F|cdGAB3B|A2Bc defA|Gfe2f4|
F4A3F|cdGAB3B|A2Bc defd|cAGFG2C2:|
|:G4c3d|cAFcf3g|fdge ^cfe2|Ad^c2d3=c/B/|
AcBAB4|Bdgde4|fcBA dGcE|F/G/F/G/ G>FF4:|
